build/svg/cmd/lc_rejecttrackedchange.svg

<?xml version="1.0" encoding="UTF-8" standalone="no"?>
<svg
   xmlns:dc="http://purl.org/dc/elements/1.1/"
   xmlns:cc="http://creativecommons.org/ns#"
   xmlns:rdf="http://www.w3.org/1999/02/22-rdf-syntax-ns#"
   xmlns:svg="http://www.w3.org/2000/svg"
   xmlns="http://www.w3.org/2000/svg"
   xmlns:sodipodi="http://sodipodi.sourceforge.net/DTD/sodipodi-0.dtd"
   xmlns:inkscape="http://www.inkscape.org/namespaces/inkscape"
   viewBox="0 0 24 24"
   version="1.1"
   id="svg4"
   sodipodi:docname="lc_rejecttrackedchange.svg"
   inkscape:export-filename="/home/jupiter007/Libreoffice yaru theme fullcolor/build/cmd/lc_rejecttrackedchange.png"
   inkscape:export-xdpi="95"
   inkscape:export-ydpi="95"
   inkscape:version="0.92.5 (2060ec1f9f, 2020-04-08)">
  <metadata
     id="metadata10">
    <rdf:RDF>
      <cc:Work
         rdf:about="">
        <dc:format>image/svg+xml</dc:format>
        <dc:type
           rdf:resource="http://purl.org/dc/dcmitype/StillImage" />
      </cc:Work>
    </rdf:RDF>
  </metadata>
  <defs
     id="defs8" />
  <sodipodi:namedview
     pagecolor="#ffffff"
     bordercolor="#666666"
     borderopacity="1"
     objecttolerance="10"
     gridtolerance="10"
     guidetolerance="10"
     inkscape:pageopacity="0"
     inkscape:pageshadow="2"
     inkscape:window-width="1920"
     inkscape:window-height="1011"
     id="namedview6"
     showgrid="true"
     inkscape:zoom="19.666667"
     inkscape:cx="7.5125504"
     inkscape:cy="6.6107895"
     inkscape:window-x="1920"
     inkscape:window-y="32"
     inkscape:window-maximized="1"
     inkscape:current-layer="svg4">
    <inkscape:grid
       type="xygrid"
       id="grid817" />
  </sodipodi:namedview>
  <path
     sodipodi:nodetypes="cccscsccccccccscscccccc"
     inkscape:connector-curvature="0"
     id="path4237-1"
     d="m 6.9941409,2.999708 c -1.2582,0.0145 -2.178891,-0.030604 -2.931641,0.3847656 C 3.68613,3.5921336 3.3892689,3.9438605 3.224609,4.3825205 3.059939,4.8211905 3,5.342108 3,5.999708 V 7.4879891 18.000292 c 0,0.65761 0.0599,1.178577 0.224609,1.617188 0.1646799,0.438611 0.461531,0.788524 0.8378909,0.996093 0.75272,0.41513 1.673541,0.371649 2.931641,0.386719 h 0.002 H 17.002 17.0059 c 1.25819,-0.0145 2.178891,0.0306 2.931641,-0.384766 0.37637,-0.20766 0.673221,-0.559386 0.837891,-0.998046 0.164539,-0.438671 0.224618,-0.959578 0.224618,-1.617188 V 7.466505 5.999708 c 0,-0.6576 -0.0599,-1.1785775 -0.224609,-1.6171875 C 20.610761,3.9439205 20.31391,3.5939867 19.93755,3.3864268 19.18478,2.9712968 18.263949,3.014788 17.005859,2.999708 h -0.002 -10.0058592 z"
     style="font-style:normal;font-variant:normal;font-weight:normal;font-stretch:normal;font-size:15px;line-height:125%;font-family:Ubuntu;-inkscape-font-specification:Ubuntu;text-align:center;letter-spacing:0px;word-spacing:0px;writing-mode:lr-tb;text-anchor:middle;display:inline;opacity:0.6;fill:#000000;fill-opacity:1;stroke:none;stroke-width:0.99980211" />
  <path
     inkscape:connector-curvature="0"
     id="path1993"
     d="m 11.983369,4.0268928 c -1.556581,0.010796 -5.1099901,-0.011752 -6.6599411,0.038775 -0.461229,0.042668 -1.016188,0.2064194 -1.15534,0.7099668 -0.218994,0.6353464 -0.108414,1.3337872 -0.145796,1.9819243 -0.0078,2.2970846 -0.02297,9.5964291 0.02152,11.8857811 0.0391,0.461929 0.202551,1.012666 0.698756,1.163666 0.632456,0.225082 1.284144,0.12274 1.935974,0.154298 1.424235,0.0068 4.8505631,0.01102 6.2764201,0.01131 1.704531,3.5e-4 3.408388,-0.005 5.10719,-0.01851 0.511911,-0.01201 1.183699,0.01993 1.584745,-0.405191 0.421097,-0.539783 0.287073,-1.268021 0.322745,-1.903787 0.01187,-2.444323 0.02769,-9.9110959 -0.0219,-12.3567955 C 19.898466,4.8862902 19.77775,4.4253784 19.372603,4.2438553 18.704434,3.9497579 17.946398,4.0758364 17.246682,4.0382826 15.492275,4.02648 13.737808,4.0257982 11.983369,4.0268928 Z"
     style="opacity:1;vector-effect:none;fill:#ffffff;fill-opacity:1;stroke:none;stroke-width:1;stroke-linecap:round;stroke-linejoin:bevel;stroke-miterlimit:4;stroke-dasharray:none;stroke-dashoffset:0;stroke-opacity:1"
     sodipodi:nodetypes="cccccccsccccccc" />
  <path
     inkscape:connector-curvature="0"
     style="fill:#232629"
     d="M 6.0000251,9.9999993 V 11 H 11.000025 V 9.9999993 Z"
     id="path838" />
  <path
     style="fill:#232629"
     d="m 8.0000251,13 v 1 h 4.9999999 v -1 z"
     id="path2"
     inkscape:connector-curvature="0" />
  <path
     inkscape:connector-curvature="0"
     style="fill:#c7162b"
     d="M 6.0000251,6.9999997 V 7.9999993 H 10.000025 V 6.9999997 Z"
     id="path834" />
  <path
     style="fill:#c7162b"
     d="M 12.000025,9.9999993 V 11 h 2 V 9.9999993 Z"
     id="path832"
     inkscape:connector-curvature="0" />
  <path
     inkscape:connector-curvature="0"
     style="fill:#c7162b"
     d="m 6.0000251,13 v 1 h 1 v -1 z"
     id="path4" />
  <path
     id="path840"
     d="m 11.000025,6.9999997 v 1.0000004 h 7 V 6.9999997 Z"
     style="fill:#232629;stroke-width:1.18321598"
     inkscape:connector-curvature="0" />
  <path
     inkscape:connector-curvature="0"
     style="fill:#232629;stroke-width:0.77459669"
     d="M 15.000025,9.9999993 V 11 h 3 V 9.9999993 Z"
     id="path842" />
  <path
     id="path844"
     d="m 14.000025,13 v 1 h 4 v -1 z"
     style="fill:#c7162b"
     inkscape:connector-curvature="0" />
  <path
     id="path846"
     d="m 6.0000251,16 v 0.999999 H 10.000025 V 16 Z"
     style="fill:#c7162b"
     inkscape:connector-curvature="0" />
  <path
     inkscape:connector-curvature="0"
     style="fill:#232629;stroke-width:1.18321598"
     d="m 11.000025,16 v 1 h 7 v -1 z"
     id="path848" />
  <circle
     style="opacity:1;vector-effect:none;fill:#c7162b;fill-opacity:1;stroke:none;stroke-width:3.49999976;stroke-linecap:butt;stroke-linejoin:round;stroke-miterlimit:4;stroke-dasharray:none;stroke-dashoffset:0;stroke-opacity:1"
     id="path2644"
     cy="19.5"
     cx="19.500025"
     r="3.5" />
  <path
     style="opacity:1;fill:#ffffff;fill-opacity:1;stroke:none;stroke-width:2;stroke-linejoin:round;stroke-miterlimit:4;stroke-dasharray:none;stroke-opacity:1"
     d="M 17.378706,18.085786 18.792919,19.5 17.378706,20.914214 18.085812,21.62132 19.500026,20.207107 20.91424,21.62132 21.621346,20.914214 20.207133,19.5 21.621346,18.085786 20.91424,17.37868 19.500026,18.792893 18.085812,17.37868 Z"
     id="rect851"
     inkscape:connector-curvature="0" />
</svg>

<svg xmlns="http://www.w3.org/2000/svg" viewBox="0 0 24 24"><path d="M6.994 3c-1.258.014-2.179-.03-2.932.384a1.88 1.88 0 00-.837.999C3.06 4.82 3 5.343 3 6v12c0 .658.06 1.179.225 1.617.164.44.461.789.837.997.753.415 1.674.371 2.932.386h10.012c1.258-.014 2.179.03 2.932-.384a1.88 1.88 0 00.837-.999c.165-.438.225-.96.225-1.617V6c0-.658-.06-1.179-.225-1.617a1.875 1.875 0 00-.837-.997c-.753-.415-1.674-.371-2.932-.386H6.998z" style="line-height:125%;-inkscape-font-specification:Ubuntu;text-align:center" font-weight="400" font-size="15" font-family="Ubuntu" letter-spacing="0" word-spacing="0" text-anchor="middle" opacity=".6"/><path d="M11.983 4.027c-1.556.01-5.11-.012-6.66.039-.46.042-1.016.206-1.155.71-.219.635-.108 1.333-.146 1.982-.008 2.297-.023 9.596.022 11.885.039.462.202 1.013.699 1.164.632.225 1.284.123 1.936.154 1.424.007 4.85.011 6.276.012 1.704 0 3.408-.005 5.107-.019.512-.012 1.184.02 1.585-.405.421-.54.287-1.268.323-1.904.012-2.444.027-9.911-.022-12.357-.05-.402-.17-.863-.575-1.044-.669-.294-1.427-.168-2.126-.206a715.985 715.985 0 00-5.264-.011z" fill="#fff"/><path d="M6 10v1h5v-1zM8 13v1h5v-1z" fill="#232629"/><path d="M6 7v1h4V7zM12 10v1h2v-1zM6 13v1h1v-1z" fill="#c7162b"/><path d="M11 7v1h7V7zM15 10v1h3v-1z" fill="#232629"/><path d="M14 13v1h4v-1zM6 16v1h4v-1z" fill="#c7162b"/><path d="M11 16v1h7v-1z" fill="#232629"/><circle cy="19.5" cx="19.5" r="3.5" fill="#c7162b"/><path d="M17.379 18.086l1.414 1.414-1.414 1.414.707.707 1.414-1.414 1.414 1.414.707-.707-1.414-1.414 1.414-1.414-.707-.707-1.414 1.414-1.414-1.414z" fill="#fff"/></svg>
